X:1
T:Title
L:1/8
M:4/4
K:Bb
V:1 treble nm="Drawbar Organ, Staff"
V:1
 F4 G2 A2 | B4 A2 B2 | c4 F4 | d4 z4 | e4 d2 c2 | d4 c2 B2 | B4 A4 | B4 B2 G2 | F4 F4 | B,4 C2 D2 | %10
w: By~Gebhardt * *||||||||||
 E4 F4 | B,4 B4- | B2 A2 B2 c2 | B4 F4 | G4 F4 | F4 z4 |] %16
w: ||||||

